app/images/dist/call-transfer.svg

<svg width="48" height="48" viewBox="0 0 48 48" fill="none" xmlns="http://www.w3.org/2000/svg">
<path d="M39.2018 8.3999L37.4018 10.1999C31.1018 16.6999 32.0018 32.1999 37.4018 37.7999L39.2018 39.5999C39.7018 40.0999 40.5018 40.0999 41.0018 39.5999L44.6018 35.8999C45.1018 35.3999 45.1018 34.5999 44.6018 34.0999L41.2018 30.6999H36.4018C35.1018 29.3999 35.1018 18.5999 36.4018 17.2999H41.2018L44.5018 13.8999C45.0018 13.3999 45.0018 12.5999 44.5018 12.0999L41.0018 8.3999C40.5018 7.8999 39.7018 7.8999 39.2018 8.3999ZM11.2018 8.3999L9.40178 10.1999C3.10178 16.6999 4.00178 32.1999 9.40178 37.7999L11.2018 39.5999C11.7018 40.0999 12.5018 40.0999 13.0018 39.5999L16.6018 35.8999C17.1018 35.3999 17.1018 34.5999 16.6018 34.0999L13.2018 30.6999H8.50178C7.20178 29.3999 7.20178 18.5999 8.50178 17.2999H13.3018L16.6018 13.8999C17.1018 13.3999 17.1018 12.5999 16.6018 12.0999L13.0018 8.3999C12.5018 7.8999 11.7018 7.8999 11.2018 8.3999Z" fill="#DC143C"/>
<path d="M25.3008 18.6001L30.7008 24.0001L25.3008 29.4001V18.6001Z" fill="#DC143C"/>
<path d="M16 22H27V26H16V22Z" fill="#DC143C"/>
</svg>

<svg width="48" height="48" fill="none" xmlns="http://www.w3.org/2000/svg"><path d="m39.202 8.4-1.8 1.8c-6.3 6.5-5.4 22 0 27.6l1.8 1.8c.5.5 1.3.5 1.8 0l3.6-3.7c.5-.5.5-1.3 0-1.8l-3.4-3.4h-4.8c-1.3-1.3-1.3-12.1 0-13.4h4.8l3.3-3.4c.5-.5.5-1.3 0-1.8l-3.5-3.7c-.5-.5-1.3-.5-1.8 0Zm-28 0-1.8 1.8c-6.3 6.5-5.4 22 0 27.6l1.8 1.8c.5.5 1.3.5 1.8 0l3.6-3.7c.5-.5.5-1.3 0-1.8l-3.4-3.4h-4.7c-1.3-1.3-1.3-12.1 0-13.4h4.8l3.3-3.4c.5-.5.5-1.3 0-1.8l-3.6-3.7c-.5-.5-1.3-.5-1.8 0ZM25.3 18.6l5.4 5.4-5.4 5.4V18.6Z" fill="#DC143C"/><path d="M16 22h11v4H16v-4Z" fill="#DC143C"/></svg>
